X:1
T:Title
%%score { ( 1 3 ) | 2 }
L:1/8
M:4/4
K:G
V:1 treble nm="Grand Piano"
V:3 treble 
V:2 bass 
V:1
 z4 z2[Q:1/4=100] D2 | G2 G2 GDGA | B2 B2 B3 G | [FA]2 [FA]2 [FA][Fc][DFB][CFA] | %4
 [B,DG]2 [CE]2 [B,D]3 [B,D] | G2 G2 GDGA | B2 B2 B3 G | [FA]2 [=Fd]2 [Ed][Ec][EB][A,EA] | %8
[M:7/8] [B,DG]2 [CDF]2 [B,DG]3 |[M:1/4] Bc |[M:4/4] d6 z2 | [Gd]2 [Fc]2 [Fc]4 | c6 z2 | %13
 [Ac]2 B2 B3 D | G2 G2 GDGA | B2 B2 B3 G | [FA]2 [=Fd]2 [Ed][Ec][EB][A,EA] | %17
[M:7/8] [B,DG]2 [CDF]2 [G,B,DG]3 |] %18
V:2
 z4 z2 [G,B,]2 | [G,B,D]2 [G,B,D]2 [G,B,D][G,B,][K:treble][G,B,D][G,CD] | %2
 [G,DG]2 [G,DG]2 [G,DG]3[K:bass] [G,B,] | [D,C]2 [D,C]2 [D,C][D,A,]D,D, | %4
 G,,2 [G,,G,]2 [G,,G,]3 [G,,G,] | [G,B,D]2 [G,B,D]2 [G,B,D][G,B,][K:treble][G,B,D][G,CD] | %6
 [G,DG]2 [G,DG]2 [G,DG]3[K:bass] [G,B,] | [D,A,]2 [B,,G,]2 [C,G,][C,G,][C,G,]C, | %8
[M:7/8] D,2 D,2 G,,3 |[M:1/4] [G,D][G,A,D] | %10
[M:4/4] [G,B,D]2 [G,B,]2 [G,B,][G,B,][K:treble][G,DG][G,B,G] | [D,B,]2 [D,A,]2 [D,A,]4 | %12
 [D,A,]2 [D,D]2 [D,D][D,D][D,D][D,D] | [G,D]2 [G,DG]2 [G,DG]3 [G,B,] | %14
 [G,B,D]2[K:bass] [G,B,D]2 [G,B,D][G,B,][G,B,D][G,CD] | [G,DG]2 [G,DG]2 [G,DG]3[K:bass] [G,B,] | %16
 [D,A,]2 [B,,G,]2 [C,G,][C,G,][C,G,]C, |[M:7/8] D,2 D,2 G,,3 |] %18
V:3
 x8 | x8 | x8 | x8 | x8 | x8 | x8 | x8 |[M:7/8] x7 |[M:1/4] x2 |[M:4/4] z2 G2 GGBd | x8 | %12
 F2 A2 AA[FA][Ac] | x8 | x8 | x8 | x8 |[M:7/8] x7 |] %18

